X: 28251
T: Mrs. James MacInnes - Edinburgh
R: strathspey
M: 4/4
K: Gmajor
D>G B>G c>A B<G|A>A B>G A<A, A,>B,|D>G B>G c>A B<g|
[1 e>B c>A B<G G>E:|2 e>B c>A B<G G>d||
|:g>d g>d b2g>e|d>b g>e f<a (3agf|1 g>d g>d d<g g2|
e>B (3dcA B<G G>d:|2 g>d (3gab (3agf g>d|(3edc B>A B>GG2||

